X: 130707
T: Master McFadden's
S: "The Ted Furey Collection of Irish Traditional Tunes"
Z: B.Black
L: 1/8
M: 4/4
R: reel
K: D
A|DF (3FEF DEFA|df (3fef dB (3BAB|\
AF (3FEF BFAF|(3GFE (3FED EDB,A,|
DF (3FEF DEFA|df (3fef dB (3BAB|\
AF (3FEF BFAF|GFEF D3 :|
A|df (3fef dfaf|g2 bg agfe|\
dBcA Bcde|fdgf e2 (3ABc|
df (3fef dfaf|g2 bg agfe|\
dB (3BAB AF (3FEF|GFEF D3 :|
